src/apps/scalable/amsynth.svg

<?xml version="1.0" encoding="UTF-8" standalone="no"?>
<svg
   width="128"
   height="128"
   viewBox="0 0 33.866666 33.866668"
   version="1.1"
   id="svg1443"
   inkscape:version="1.1.2 (0a00cf5339, 2022-02-04)"
   sodipodi:docname="amsynth.svg"
   xmlns:inkscape="http://www.inkscape.org/namespaces/inkscape"
   xmlns:sodipodi="http://sodipodi.sourceforge.net/DTD/sodipodi-0.dtd"
   xmlns:xlink="http://www.w3.org/1999/xlink"
   xmlns="http://www.w3.org/2000/svg"
   xmlns:svg="http://www.w3.org/2000/svg"
   xmlns:rdf="http://www.w3.org/1999/02/22-rdf-syntax-ns#"
   xmlns:cc="http://creativecommons.org/ns#"
   xmlns:dc="http://purl.org/dc/elements/1.1/">
  <defs
     id="defs1437">
    <linearGradient
       inkscape:collect="always"
       id="linearGradient2546">
      <stop
         style="stop-color:#ffffff;stop-opacity:1;"
         offset="0"
         id="stop2542" />
      <stop
         style="stop-color:#ee4f22;stop-opacity:0.97647059"
         offset="1"
         id="stop2544" />
    </linearGradient>
    <linearGradient
       inkscape:collect="always"
       id="linearGradient961">
      <stop
         style="stop-color:#ff9c38;stop-opacity:1"
         offset="0"
         id="stop957" />
      <stop
         style="stop-color:#ea3d1c;stop-opacity:0.96862745"
         offset="1"
         id="stop959" />
    </linearGradient>
    <filter
       color-interpolation-filters="sRGB"
       height="1.1311001"
       width="1.1106"
       y="-0.065563001"
       x="-0.055319"
       id="c-9">
      <feGaussianBlur
         id="feGaussianBlur1093"
         stdDeviation="1.1062912" />
    </filter>
    <linearGradient
       gradientUnits="userSpaceOnUse"
       gradientTransform="matrix(0.13235,0,0,0.13075,-32.379,1.0873)"
       y2="269.48999"
       y1="235.14999"
       x2="657.65002"
       x1="319.20999"
       id="a-12">
      <stop
         id="stop1076"
         offset="0"
         stop-color="#e54c18" />
      <stop
         id="stop1078"
         offset="1"
         stop-color="#fec350" />
    </linearGradient>
    <radialGradient
       inkscape:collect="always"
       xlink:href="#linearGradient961"
       id="radialGradient963"
       cx="16.951138"
       cy="2.5104072"
       fx="16.951138"
       fy="2.5104072"
       r="14.543719"
       gradientUnits="userSpaceOnUse"
       gradientTransform="matrix(7.138573,0,0,2.2345134,-104.05579,-3.0991313)" />
    <linearGradient
       id="linearGradient4146-2">
      <stop
         style="stop-color:#f6f6f6;stop-opacity:1;"
         offset="0"
         id="stop4148-2" />
      <stop
         style="stop-color:#e2e2e2;stop-opacity:1;"
         offset="1"
         id="stop4150-8" />
    </linearGradient>
    <linearGradient
       inkscape:collect="always"
       xlink:href="#linearGradient2546"
       id="linearGradient2548"
       x1="9.5045633"
       y1="7.9633036"
       x2="9.5045633"
       y2="70.504845"
       gradientUnits="userSpaceOnUse" />
  </defs>
  <sodipodi:namedview
     id="base"
     pagecolor="#ffffff"
     bordercolor="#666666"
     borderopacity="1.0"
     inkscape:pageopacity="0.0"
     inkscape:pageshadow="2"
     inkscape:zoom="2.8"
     inkscape:cx="33.928571"
     inkscape:cy="73.035714"
     inkscape:document-units="mm"
     inkscape:current-layer="layer1"
     inkscape:document-rotation="0"
     showgrid="false"
     units="px"
     inkscape:window-width="1920"
     inkscape:window-height="1030"
     inkscape:window-x="0"
     inkscape:window-y="24"
     inkscape:window-maximized="1"
     showguides="true"
     inkscape:guide-bbox="true"
     inkscape:pagecheckerboard="0" />
  <metadata
     id="metadata1440">
    <rdf:RDF>
      <cc:Work
         rdf:about="">
        <dc:format>image/svg+xml</dc:format>
        <dc:type
           rdf:resource="http://purl.org/dc/dcmitype/StillImage" />
      </cc:Work>
    </rdf:RDF>
  </metadata>
  <g
     inkscape:label="Capa 1"
     inkscape:groupmode="layer"
     id="layer1">
    <g
       style="opacity:0.295"
       transform="matrix(0.97573206,0,0,0.97573206,-65.737228,-37.182508)"
       id="g1702">
      <rect
         ry="6.6098609"
         rx="6.6098609"
         y="40.709618"
         x="69.839508"
         height="29.810888"
         width="29.810888"
         id="rect1634"
         style="fill:none;fill-opacity:1;stroke:#000000;stroke-width:0.1;stroke-linecap:round;stroke-linejoin:round;stroke-miterlimit:4;stroke-dasharray:none;stroke-opacity:0.02" />
      <rect
         style="fill:none;fill-opacity:1;stroke:#000000;stroke-width:0.2;stroke-linecap:round;stroke-linejoin:round;stroke-miterlimit:4;stroke-dasharray:none;stroke-opacity:0.02"
         id="rect1638"
         width="29.810888"
         height="29.810888"
         x="69.839508"
         y="40.709618"
         rx="6.6098609"
         ry="6.6098609" />
      <rect
         ry="6.6098609"
         rx="6.6098609"
         y="40.709618"
         x="69.839508"
         height="29.810888"
         width="29.810888"
         id="rect1640"
         style="fill:none;fill-opacity:1;stroke:#000000;stroke-width:0.3;stroke-linecap:round;stroke-linejoin:round;stroke-miterlimit:4;stroke-dasharray:none;stroke-opacity:0.02" />
      <rect
         style="fill:none;fill-opacity:1;stroke:#000000;stroke-width:0.4;stroke-linecap:round;stroke-linejoin:round;stroke-miterlimit:4;stroke-dasharray:none;stroke-opacity:0.02"
         id="rect1642"
         width="29.810888"
         height="29.810888"
         x="69.839508"
         y="40.709618"
         rx="6.6098609"
         ry="6.6098609" />
      <rect
         ry="6.6098609"
         rx="6.6098609"
         y="40.709618"
         x="69.839508"
         height="29.810888"
         width="29.810888"
         id="rect1644"
         style="fill:none;fill-opacity:1;stroke:#000000;stroke-width:0.5;stroke-linecap:round;stroke-linejoin:round;stroke-miterlimit:4;stroke-dasharray:none;stroke-opacity:0.02" />
      <rect
         style="fill:none;fill-opacity:1;stroke:#000000;stroke-width:0.6;stroke-linecap:round;stroke-linejoin:round;stroke-miterlimit:4;stroke-dasharray:none;stroke-opacity:0.02"
         id="rect1646"
         width="29.810888"
         height="29.810888"
         x="69.839508"
         y="40.709618"
         rx="6.6098609"
         ry="6.6098609" />
      <rect
         ry="6.6098609"
         rx="6.6098609"
         y="40.709618"
         x="69.839508"
         height="29.810888"
         width="29.810888"
         id="rect1648"
         style="fill:none;fill-opacity:1;stroke:#000000;stroke-width:0.7;stroke-linecap:round;stroke-linejoin:round;stroke-miterlimit:4;stroke-dasharray:none;stroke-opacity:0.02" />
      <rect
         style="fill:none;fill-opacity:1;stroke:#000000;stroke-width:0.8;stroke-linecap:round;stroke-linejoin:round;stroke-miterlimit:4;stroke-dasharray:none;stroke-opacity:0.02"
         id="rect1650"
         width="29.810888"
         height="29.810888"
         x="69.839508"
         y="40.709618"
         rx="6.6098609"
         ry="6.6098609" />
      <rect
         ry="6.6098609"
         rx="6.6098609"
         y="40.709618"
         x="69.839508"
         height="29.810888"
         width="29.810888"
         id="rect1652"
         style="fill:none;fill-opacity:1;stroke:#000000;stroke-width:1;stroke-linecap:round;stroke-linejoin:round;stroke-miterlimit:4;stroke-dasharray:none;stroke-opacity:0.02" />
      <rect
         style="fill:none;fill-opacity:1;stroke:#000000;stroke-width:1.2;stroke-linecap:round;stroke-linejoin:round;stroke-miterlimit:4;stroke-dasharray:none;stroke-opacity:0.02"
         id="rect1654"
         width="29.810888"
         height="29.810888"
         x="69.839508"
         y="40.709618"
         rx="6.6098609"
         ry="6.6098609" />
      <rect
         ry="6.6098609"
         rx="6.6098609"
         y="40.709618"
         x="69.839508"
         height="29.810888"
         width="29.810888"
         id="rect1656"
         style="fill:none;fill-opacity:1;stroke:#000000;stroke-width:1.4;stroke-linecap:round;stroke-linejoin:round;stroke-miterlimit:4;stroke-dasharray:none;stroke-opacity:0.02" />
      <rect
         style="fill:none;fill-opacity:1;stroke:#000000;stroke-width:1.6;stroke-linecap:round;stroke-linejoin:round;stroke-miterlimit:4;stroke-dasharray:none;stroke-opacity:0.02"
         id="rect1658"
         width="29.810888"
         height="29.810888"
         x="69.839508"
         y="40.709618"
         rx="6.6098609"
         ry="6.6098609" />
      <rect
         ry="6.6098609"
         rx="6.6098609"
         y="40.709618"
         x="69.839508"
         height="29.810888"
         width="29.810888"
         id="rect1660"
         style="fill:none;fill-opacity:1;stroke:#000000;stroke-width:1.8;stroke-linecap:round;stroke-linejoin:round;stroke-miterlimit:4;stroke-dasharray:none;stroke-opacity:0.02" />
      <rect
         style="fill:none;fill-opacity:1;stroke:#000000;stroke-width:2;stroke-linecap:round;stroke-linejoin:round;stroke-miterlimit:4;stroke-dasharray:none;stroke-opacity:0.02"
         id="rect1662"
         width="29.810888"
         height="29.810888"
         x="69.839508"
         y="40.709618"
         rx="6.6098609"
         ry="6.6098609" />
      <rect
         ry="6.6098609"
         rx="6.6098609"
         y="40.709618"
         x="69.839508"
         height="29.810888"
         width="29.810888"
         id="rect1664"
         style="fill:none;fill-opacity:1;stroke:#000000;stroke-width:2.2;stroke-linecap:round;stroke-linejoin:round;stroke-miterlimit:4;stroke-dasharray:none;stroke-opacity:0.02" />
      <rect
         style="fill:none;fill-opacity:1;stroke:#000000;stroke-width:2.6;stroke-linecap:round;stroke-linejoin:round;stroke-miterlimit:4;stroke-dasharray:none;stroke-opacity:0.02"
         id="rect1666"
         width="29.810888"
         height="29.810888"
         x="69.839508"
         y="40.709618"
         rx="6.6098609"
         ry="6.6098609" />
      <rect
         ry="6.6098609"
         rx="6.6098609"
         y="40.709618"
         x="69.839508"
         height="29.810888"
         width="29.810888"
         id="rect1668"
         style="fill:none;fill-opacity:1;stroke:#000000;stroke-width:3;stroke-linecap:round;stroke-linejoin:round;stroke-miterlimit:4;stroke-dasharray:none;stroke-opacity:0.02" />
      <rect
         style="fill:none;fill-opacity:1;stroke:#000000;stroke-width:3.4;stroke-linecap:round;stroke-linejoin:round;stroke-miterlimit:4;stroke-dasharray:none;stroke-opacity:0.02"
         id="rect1670"
         width="29.810888"
         height="29.810888"
         x="69.839508"
         y="40.709618"
         rx="6.6098609"
         ry="6.6098609" />
      <rect
         ry="6.6098609"
         rx="6.6098609"
         y="40.709618"
         x="69.839508"
         height="29.810888"
         width="29.810888"
         id="rect1672"
         style="fill:none;fill-opacity:1;stroke:#000000;stroke-width:3.8;stroke-linecap:round;stroke-linejoin:round;stroke-miterlimit:4;stroke-dasharray:none;stroke-opacity:0.02" />
      <rect
         style="fill:none;fill-opacity:1;stroke:#000000;stroke-width:4.2;stroke-linecap:round;stroke-linejoin:round;stroke-miterlimit:4;stroke-dasharray:none;stroke-opacity:0.02"
         id="rect1674"
         width="29.810888"
         height="29.810888"
         x="69.839508"
         y="40.709618"
         rx="6.6098609"
         ry="6.6098609" />
      <rect
         ry="6.6098609"
         rx="6.6098609"
         y="40.709618"
         x="69.839508"
         height="29.810888"
         width="29.810888"
         id="rect1676"
         style="fill:none;fill-opacity:1;stroke:#000000;stroke-width:4.6;stroke-linecap:round;stroke-linejoin:round;stroke-miterlimit:4;stroke-dasharray:none;stroke-opacity:0.02" />
      <rect
         style="fill:none;fill-opacity:1;stroke:#000000;stroke-width:5;stroke-linecap:round;stroke-linejoin:round;stroke-miterlimit:4;stroke-dasharray:none;stroke-opacity:0.02"
         id="rect1678"
         width="29.810888"
         height="29.810888"
         x="69.839508"
         y="40.709618"
         rx="6.6098609"
         ry="6.6098609" />
    </g>
    <rect
       ry="6.4494534"
       rx="6.4494534"
       y="2.5391712"
       x="2.4074187"
       height="29.087439"
       width="29.087439"
       id="rect849"
       style="fill:url(#radialGradient963);fill-opacity:1;stroke-width:2.68768;stroke-linecap:round;stroke-linejoin:round" />
    <g
       id="g3904">
      <path
         style="color:#000000;fill:#200000;fill-opacity:0.0559602;stroke-width:2.20912;stroke-linecap:round;stroke-linejoin:round;-inkscape-stroke:none"
         d="m 12.897734,8.5124138 c -1.311857,-0.0013 -2.376322,1.0612336 -2.377405,2.3730912 v 14.225596 c -0.0014,1.313596 1.063807,2.378838 2.377405,2.377405 1.311913,-9.52e-4 2.374523,-1.065494 2.373091,-2.377405 V 14.04743 c 0,0 -0.192636,-1.191151 1.723729,-1.191151 1.91636,0 1.723725,1.191151 1.723725,1.191151 v 11.024838 c -0.0013,1.311857 1.061231,2.37632 2.373088,2.377404 h 3.598469 c 1.311913,-9.53e-4 2.374519,-1.065495 2.373088,-2.377404 -9.52e-4,-1.310227 -1.062861,-2.372138 -2.373088,-2.37309 H 23.468772 V 10.885505 C 23.467688,9.5736474 22.403224,8.5111148 21.091367,8.5124138 Z"
         id="path3661"
         sodipodi:nodetypes="cccccczcccccccccc" />
      <path
         style="color:#000000;fill:#200000;fill-opacity:0.0559602;stroke-width:2.20912;stroke-linecap:round;stroke-linejoin:round;-inkscape-stroke:none"
         d="m 13.157217,8.7690131 c -1.311857,-0.0013 -2.376322,1.0612336 -2.377405,2.3730909 V 25.3677 c -0.0014,1.313596 1.063807,2.378838 2.377405,2.377405 1.311913,-9.52e-4 2.374523,-1.065494 2.373091,-2.377405 V 14.304029 c 0,0 -0.192636,-1.191151 1.723729,-1.191151 1.91636,0 1.723725,1.191151 1.723725,1.191151 v 11.024838 c -0.0013,1.311857 1.061231,2.37632 2.373088,2.377404 h 3.598469 c 1.311913,-9.53e-4 2.374519,-1.065495 2.373088,-2.377404 -9.52e-4,-1.310227 -1.062861,-2.372138 -2.373088,-2.37309 H 23.728255 V 11.142104 C 23.727171,9.8302467 22.662707,8.7677141 21.35085,8.7690131 Z"
         id="path3897"
         sodipodi:nodetypes="cccccczcccccccccc" />
      <path
         style="color:#000000;fill:#200000;fill-opacity:0.0559602;stroke-width:2.20912;stroke-linecap:round;stroke-linejoin:round;-inkscape-stroke:none"
         d="m 13.476532,9.1948974 c -1.311857,-0.0013 -2.376322,1.0612336 -2.377405,2.3730906 v 14.225596 c -0.0014,1.313596 1.063807,2.378838 2.377405,2.377405 1.311913,-9.52e-4 2.374523,-1.065494 2.373091,-2.377405 V 14.729913 c 0,0 -0.192636,-1.191151 1.723729,-1.191151 1.91636,0 1.723725,1.191151 1.723725,1.191151 v 11.024838 c -0.0013,1.311857 1.061231,2.37632 2.373088,2.377404 h 3.598469 c 1.311913,-9.53e-4 2.374519,-1.065495 2.373088,-2.377404 -9.52e-4,-1.310227 -1.062861,-2.372138 -2.373088,-2.37309 H 24.04757 V 11.567988 C 24.04647,10.256131 22.982022,9.1935984 21.670165,9.1948974 Z"
         id="path3899"
         sodipodi:nodetypes="cccccczcccccccccc" />
    </g>
    <path
       style="color:#000000;fill:url(#linearGradient2548);fill-opacity:1;stroke-width:2.20912;stroke-linecap:round;stroke-linejoin:round;-inkscape-stroke:none"
       d="m 12.60959,8.2858832 c -1.311857,-0.0013 -2.376322,1.0612336 -2.377405,2.3730908 V 24.88457 c -0.0014,1.313596 1.063807,2.378838 2.377405,2.377405 1.311913,-9.52e-4 2.374523,-1.065494 2.373091,-2.377405 V 13.820899 c 0,0 -0.192636,-1.191151 1.723729,-1.191151 1.91636,0 1.723725,1.191151 1.723725,1.191151 v 11.024838 c -0.0013,1.311857 1.061231,2.37632 2.373088,2.377404 h 3.598469 c 1.311913,-9.53e-4 2.374519,-1.065495 2.373088,-2.377404 -9.52e-4,-1.310227 -1.062861,-2.372138 -2.373088,-2.37309 H 23.180628 V 10.658974 C 23.179544,9.3471168 22.11508,8.2845842 20.803223,8.2858832 Z"
       id="path1074"
       sodipodi:nodetypes="cccccczcccccccccc" />
  </g>
</svg>

<?xml version="1.0" encoding="UTF-8"?>
<svg id="svg1443" width="128" height="128" version="1.1" viewBox="0 0 33.867 33.867" xmlns="http://www.w3.org/2000/svg" xmlns:cc="http://creativecommons.org/ns#" xmlns:dc="http://purl.org/dc/elements/1.1/" xmlns:rdf="http://www.w3.org/1999/02/22-rdf-syntax-ns#" xmlns:xlink="http://www.w3.org/1999/xlink">
 <defs id="defs1437">
  <radialGradient id="radialGradient963" cx="16.951" cy="2.5104" r="14.544" gradientTransform="matrix(7.1386 0 0 2.2345 -104.06 -3.0991)" gradientUnits="userSpaceOnUse">
   <stop id="stop957" stop-color="#ff9c38" offset="0"/>
   <stop id="stop959" stop-color="#ea3d1c" stop-opacity=".96863" offset="1"/>
  </radialGradient>
  <linearGradient id="linearGradient2548" x1="9.5046" x2="9.5046" y1="7.9633" y2="70.505" gradientUnits="userSpaceOnUse">
   <stop id="stop2542" stop-color="#fff" offset="0"/>
   <stop id="stop2544" stop-color="#ee4f22" stop-opacity=".97647" offset="1"/>
  </linearGradient>
 </defs>
 <metadata id="metadata1440">
  <rdf:RDF>
   <cc:Work rdf:about="">
    <dc:format>image/svg+xml</dc:format>
    <dc:type rdf:resource="http://purl.org/dc/dcmitype/StillImage"/>
   </cc:Work>
  </rdf:RDF>
 </metadata>
 <g id="layer1" stroke-linecap="round" stroke-linejoin="round">
  <g id="g1702" transform="matrix(.97573 0 0 .97573 -65.737 -37.183)" fill="none" opacity=".295" stroke="#000" stroke-opacity=".02">
   <rect id="rect1634" x="69.84" y="40.71" width="29.811" height="29.811" rx="6.6099" ry="6.6099" stroke-width=".1"/>
   <rect id="rect1638" x="69.84" y="40.71" width="29.811" height="29.811" rx="6.6099" ry="6.6099" stroke-width=".2"/>
   <rect id="rect1640" x="69.84" y="40.71" width="29.811" height="29.811" rx="6.6099" ry="6.6099" stroke-width=".3"/>
   <rect id="rect1642" x="69.84" y="40.71" width="29.811" height="29.811" rx="6.6099" ry="6.6099" stroke-width=".4"/>
   <rect id="rect1644" x="69.84" y="40.71" width="29.811" height="29.811" rx="6.6099" ry="6.6099" stroke-width=".5"/>
   <rect id="rect1646" x="69.84" y="40.71" width="29.811" height="29.811" rx="6.6099" ry="6.6099" stroke-width=".6"/>
   <rect id="rect1648" x="69.84" y="40.71" width="29.811" height="29.811" rx="6.6099" ry="6.6099" stroke-width=".7"/>
   <rect id="rect1650" x="69.84" y="40.71" width="29.811" height="29.811" rx="6.6099" ry="6.6099" stroke-width=".8"/>
   <rect id="rect1652" x="69.84" y="40.71" width="29.811" height="29.811" rx="6.6099" ry="6.6099"/>
   <rect id="rect1654" x="69.84" y="40.71" width="29.811" height="29.811" rx="6.6099" ry="6.6099" stroke-width="1.2"/>
   <rect id="rect1656" x="69.84" y="40.71" width="29.811" height="29.811" rx="6.6099" ry="6.6099" stroke-width="1.4"/>
   <rect id="rect1658" x="69.84" y="40.71" width="29.811" height="29.811" rx="6.6099" ry="6.6099" stroke-width="1.6"/>
   <rect id="rect1660" x="69.84" y="40.71" width="29.811" height="29.811" rx="6.6099" ry="6.6099" stroke-width="1.8"/>
   <rect id="rect1662" x="69.84" y="40.71" width="29.811" height="29.811" rx="6.6099" ry="6.6099" stroke-width="2"/>
   <rect id="rect1664" x="69.84" y="40.71" width="29.811" height="29.811" rx="6.6099" ry="6.6099" stroke-width="2.2"/>
   <rect id="rect1666" x="69.84" y="40.71" width="29.811" height="29.811" rx="6.6099" ry="6.6099" stroke-width="2.6"/>
   <rect id="rect1668" x="69.84" y="40.71" width="29.811" height="29.811" rx="6.6099" ry="6.6099" stroke-width="3"/>
   <rect id="rect1670" x="69.84" y="40.71" width="29.811" height="29.811" rx="6.6099" ry="6.6099" stroke-width="3.4"/>
   <rect id="rect1672" x="69.84" y="40.71" width="29.811" height="29.811" rx="6.6099" ry="6.6099" stroke-width="3.8"/>
   <rect id="rect1674" x="69.84" y="40.71" width="29.811" height="29.811" rx="6.6099" ry="6.6099" stroke-width="4.2"/>
   <rect id="rect1676" x="69.84" y="40.71" width="29.811" height="29.811" rx="6.6099" ry="6.6099" stroke-width="4.6"/>
   <rect id="rect1678" x="69.84" y="40.71" width="29.811" height="29.811" rx="6.6099" ry="6.6099" stroke-width="5"/>
  </g>
  <rect id="rect849" x="2.4074" y="2.5392" width="29.087" height="29.087" rx="6.4495" ry="6.4495" fill="url(#radialGradient963)" stroke-width="2.6877"/>
  <g id="g3904" fill="#200000" fill-opacity=".05596" stroke-width="2.2091">
   <path id="path3661" d="m12.898 8.5124c-1.3119-0.0013-2.3763 1.0612-2.3774 2.3731v14.226c-0.0014 1.3136 1.0638 2.3788 2.3774 2.3774 1.3119-9.52e-4 2.3745-1.0655 2.3731-2.3774v-11.064s-0.19264-1.1912 1.7237-1.1912c1.9164 0 1.7237 1.1912 1.7237 1.1912v11.025c-0.0013 1.3119 1.0612 2.3763 2.3731 2.3774h3.5985c1.3119-9.53e-4 2.3745-1.0655 2.3731-2.3774-9.52e-4 -1.3102-1.0629-2.3721-2.3731-2.3731h-1.2211v-11.814c-0.001084-1.3119-1.0655-2.3744-2.3774-2.3731z" color="#000000" style="-inkscape-stroke:none"/>
   <path id="path3897" d="m13.157 8.769c-1.3119-0.0013-2.3763 1.0612-2.3774 2.3731v14.226c-0.0014 1.3136 1.0638 2.3788 2.3774 2.3774 1.3119-9.52e-4 2.3745-1.0655 2.3731-2.3774v-11.064s-0.19264-1.1912 1.7237-1.1912c1.9164 0 1.7237 1.1912 1.7237 1.1912v11.025c-0.0013 1.3119 1.0612 2.3763 2.3731 2.3774h3.5985c1.3119-9.53e-4 2.3745-1.0655 2.3731-2.3774-9.52e-4 -1.3102-1.0629-2.3721-2.3731-2.3731h-1.2211v-11.814c-0.001084-1.3119-1.0655-2.3744-2.3774-2.3731z" color="#000000" style="-inkscape-stroke:none"/>
   <path id="path3899" d="m13.477 9.1949c-1.3119-0.0013-2.3763 1.0612-2.3774 2.3731v14.226c-0.0014 1.3136 1.0638 2.3788 2.3774 2.3774 1.3119-9.52e-4 2.3745-1.0655 2.3731-2.3774v-11.064s-0.19264-1.1912 1.7237-1.1912c1.9164 0 1.7237 1.1912 1.7237 1.1912v11.025c-0.0013 1.3119 1.0612 2.3763 2.3731 2.3774h3.5985c1.3119-9.53e-4 2.3745-1.0655 2.3731-2.3774-9.52e-4 -1.3102-1.0629-2.3721-2.3731-2.3731h-1.2211v-11.814c-0.0011-1.3119-1.0655-2.3744-2.3774-2.3731z" color="#000000" style="-inkscape-stroke:none"/>
  </g>
  <path id="path1074" d="m12.61 8.2859c-1.3119-0.0013-2.3763 1.0612-2.3774 2.3731v14.226c-0.0014 1.3136 1.0638 2.3788 2.3774 2.3774 1.3119-9.52e-4 2.3745-1.0655 2.3731-2.3774v-11.064s-0.19264-1.1912 1.7237-1.1912c1.9164 0 1.7237 1.1912 1.7237 1.1912v11.025c-0.0013 1.3119 1.0612 2.3763 2.3731 2.3774h3.5985c1.3119-9.53e-4 2.3745-1.0655 2.3731-2.3774-9.52e-4 -1.3102-1.0629-2.3721-2.3731-2.3731h-1.2211v-11.814c-0.001084-1.3119-1.0655-2.3744-2.3774-2.3731z" color="#000000" fill="url(#linearGradient2548)" stroke-width="2.2091" style="-inkscape-stroke:none"/>
 </g>
</svg>
